X:1
T:I Want to Be Ready
T:I Want to Be Ready
T:African-American Spiritual
T:Public Domain Courtesy of the Cyber Hymnal™
C:African-American Spiritual
Z:Public Domain
Z:Courtesy of the Cyber Hymnal™
%%score ( 1 2 ) ( 3 4 )
L:1/8
Q:1/4=80
M:2/4
K:Eb
V:1 treble 
V:2 treble 
V:3 bass 
V:4 bass 
V:1
"^Refrain" E E- E/>E/[EG] | [GB]2 [GB]2 | [Ac] [Ac]- [Ac]/>[Ac]/[Ae] | [GB]2 (G/F/E) | %4
w: ~ ~ * ~ ~|~ ~|~ ~ * ~ ~|~ ~ * *|
w: ~ ~ * ~ ~|~ ~|~ ~ * ~ ~|~ ~ * *|
w: ~ ~ * ~ ~|~ ~|~ ~ * ~ ~|~ ~ * *|
w: ~ ~ * ~ ~|~ ~|~ ~ * ~ ~|~ ~ * *|
 [DF][DF]- [DF]/>[DF]/[DG] | (F<E) (E/C/B,/)C/ | [B,E]/[B,E][B,G]/ [CF]/[CE]/C | %7
w: ~ ~ * ~ ~|~ * ~ * * ~|~ ~ ~ ~ ~ ~|
w: ~ ~ * ~ ~|~ * ~ * * ~|~ ~ ~ ~ ~ ~|
w: ~ ~ * ~ ~|~ * ~ * * ~|~ ~ ~ ~ ~ ~|
w: ~ ~ * ~ ~|~ * ~ * * ~|~ ~ ~ ~ ~ ~|
 [B,E][B,E] [B,E] ||"^Leader" B | (BG) G/G/G | GG E2 |"^Response" [B,E]/[B,E][CG]/ [CF]/[CE]/C | %12
w: ~ ~ ~|1.~John~said|the * ci- ty was|just four- square,|Walk in Je- ru- sa- lem|
w: ~ ~ ~|2.~O|John, * O John, what|do you say?|Walk in Je- ru- sa- lem|
w: ~ ~ ~|3.~When~Pet-|er~was * preach- ing at|Pen- te- cost|Walk in Je- ru- sa- lem|
w: ~ ~ ~|4.~If|you * get there be-|fore I do,|Walk in Je- ru- sa- lem|
 [B,E][B,E] [B,E]B |"^Leader" BG GG | GG E2 |"^Response" [B,E]/[B,E][B,G]/ [CF]/[CE]/C | %16
w: just like John. And|he de- clared he’d|meet me there,|Walk in Je- ru- sa- lem|
w: just like John. That~I’ll|be there at the|com- ing day,|Walk in Je- ru- sa- lem|
w: just like John. He~was|en- dowed with the|Ho- ly Ghost,|Walk in Je- ru- sa- lem|
w: just like John. Tell|all my friend I’m~a-|com- in’, too,|Walk in Je- ru- sa- lem|
 [B,E][B,E] [B,E]2 |] %17
w: just like John.|
w: just like John.|
w: just like John.|
w: just like John.|
V:2
 EE- E/>E/ x | x4 | x4 | x2 E2 | x4 | E2 x2 | x4 | x3 || x | x4 | x4 | x3 C | x4 | x4 | x4 | x3 C | %16
 x4 |] %17
V:3
 [E,G,] [E,G,]- [E,G,]/>[E,G,]/[E,B,] | [E,E]2 [E,E]2 | [A,,E][A,,E]- [A,,E]/>[A,,E]/[A,,E] | %3
w: I want * to be|rea- dy,|I want * to be|
 [E,E]2 (B,/A,/G,) | [B,,A,][B,,A,]- [B,,A,]/>[B,,A,]/[B,,B,] | [E,G,]2 [E,G,]>[E,G,] | %6
w: rea- dy, * *|I want * to be|rea- dy, To|
 [E,G,]/[E,G,][E,G,]/ [E,A,]/[E,A,]/[E,A,] | [E,G,][E,G,] [E,G,] || z | z4 | z4 | %11
w: walk in Je- ru- sa- lem|just like John.||||
 [E,G,]/[E,G,][E,G,]/ [E,A,]/[E,A,]/[E,A,] | [E,G,][E,G,] [E,G,] z | z4 | z4 | %15
w: ||||
 [E,G,]/[E,G,][E,G,]/ [E,A,]/[E,A,]/[E,A,] | [E,G,][E,G,] [E,G,]2 |] %17
w: ||
V:4
 x4 | x4 | x4 | x2 E,2 | x4 | x4 | x4 | x3 || x | x4 | x4 | x4 | x4 | x4 | x4 | x4 | x4 |] %17

